dist/assets/img/svg/apple-pay.svg

<svg width="67" height="28" viewBox="0 0 67 28"  xmlns="http://www.w3.org/2000/svg">
<path d="M12.4748 3.61075C13.2519 2.63875 13.7792 1.33366 13.6402 0C12.5026 0.0565651 11.1144 0.750497 10.3107 1.72325C9.58906 2.55627 8.95036 3.91601 9.11687 5.19376C10.3939 5.30453 11.6697 4.55547 12.4748 3.61075Z"/>
<path d="M13.6257 5.44322C11.7712 5.33275 10.1944 6.49573 9.30878 6.49573C8.42268 6.49573 7.06651 5.49888 5.5997 5.52575C3.69057 5.55379 1.91911 6.63323 0.950301 8.35005C-1.04237 11.7845 0.424436 16.8791 2.3622 19.6763C3.30322 21.0601 4.43732 22.5839 5.93166 22.5291C7.34356 22.4737 7.89697 21.6149 9.6132 21.6149C11.3282 21.6149 11.8267 22.5291 13.3212 22.5014C14.8712 22.4737 15.8401 21.1169 16.7812 19.7317C17.8607 18.1541 18.3026 16.6309 18.3304 16.5473C18.3026 16.5196 15.3417 15.3837 15.3143 11.9778C15.2863 9.12595 17.6389 7.76945 17.7496 7.68533C16.4211 5.72044 14.3453 5.49888 13.6257 5.44322Z"/>
<path d="M29.7731 1.58378C33.8039 1.58378 36.6106 4.36218 36.6106 8.40733C36.6106 12.4669 33.7461 15.2598 29.6721 15.2598H25.2093V22.3568H21.985V1.58378L29.7731 1.58378ZM25.2093 12.5533H28.909C31.7163 12.5533 33.314 11.0419 33.314 8.42177C33.314 5.80192 31.7163 4.3047 28.9235 4.3047H25.2093V12.5533Z"/>
<path d="M37.453 18.0526C37.453 15.4036 39.4828 13.777 43.082 13.5754L47.2277 13.3308V12.1649C47.2277 10.4805 46.0904 9.47281 44.1905 9.47281C42.3906 9.47281 41.2677 10.3364 40.9945 11.6898H38.0578C38.2305 8.95439 40.5624 6.93904 44.3055 6.93904C47.9763 6.93904 50.3227 8.88247 50.3227 11.9199V22.3569H47.3427V19.8664H47.271C46.393 21.5508 44.4782 22.6159 42.4917 22.6159C39.5261 22.6159 37.453 20.7733 37.453 18.0526ZM47.2277 16.6851V15.4903L43.4991 15.7205C41.642 15.8501 40.5913 16.6707 40.5913 17.9663C40.5913 19.2905 41.6853 20.1544 43.3553 20.1544C45.5289 20.1544 47.2277 18.6571 47.2277 16.6851Z"/>
<path d="M53.136 27.9282V25.4089C53.366 25.4664 53.8841 25.4664 54.1434 25.4664C55.5829 25.4664 56.3604 24.8619 56.8352 23.3072C56.8352 23.2783 57.109 22.3859 57.109 22.3714L51.6388 7.21265H55.007L58.8367 19.5355H58.8939L62.7235 7.21265H66.0057L60.3333 23.1486C59.0383 26.8197 57.541 28.0001 54.4028 28.0001C54.1434 28.0001 53.366 27.9712 53.136 27.9282Z"/>
</svg>

<svg width="67" height="28" xmlns="http://www.w3.org/2000/svg"><path d="M12.475 3.61c.777-.971 1.304-2.276 1.165-3.61-1.137.057-2.526.75-3.33 1.723-.72.833-1.36 2.193-1.193 3.47 1.277.112 2.553-.638 3.358-1.582zm1.151 1.833c-1.855-.11-3.432 1.053-4.317 1.053-.886 0-2.242-.997-3.71-.97C3.692 5.554 1.92 6.633.95 8.35c-1.992 3.434-.526 8.53 1.412 11.326.941 1.384 2.075 2.908 3.57 2.853 1.412-.055 1.965-.914 3.681-.914 1.715 0 2.214.914 3.708.886 1.55-.027 2.52-1.384 3.46-2.77 1.08-1.577 1.522-3.1 1.55-3.184-.028-.027-2.99-1.163-3.017-4.57-.028-2.851 2.325-4.208 2.436-4.292-1.33-1.965-3.405-2.185-4.124-2.242zm16.147-3.859c4.03 0 6.838 2.778 6.838 6.823 0 4.06-2.865 6.853-6.939 6.853H25.21v7.097h-3.224V1.584h7.788zm-4.564 10.97h3.7c2.807 0 4.405-1.512 4.405-4.132 0-2.62-1.598-4.117-4.39-4.117h-3.715v8.248zm12.244 5.499c0-2.65 2.03-4.276 5.629-4.478l4.146-.244v-1.166c0-1.684-1.138-2.692-3.038-2.692-1.8 0-2.922.863-3.195 2.217h-2.937c.172-2.736 2.504-4.751 6.248-4.751 3.67 0 6.017 1.943 6.017 4.98v10.438h-2.98v-2.49h-.072c-.878 1.684-2.793 2.749-4.78 2.749-2.965 0-5.038-1.843-5.038-4.563zm9.775-1.368V15.49l-3.729.23c-1.857.13-2.908.95-2.908 2.246 0 1.325 1.094 2.188 2.764 2.188 2.174 0 3.873-1.497 3.873-3.469zm5.908 11.243v-2.52c.23.058.748.058 1.007.058 1.44 0 2.217-.604 2.692-2.159 0-.029.274-.921.274-.936l-5.47-15.158h3.368l3.83 12.322h.057l3.83-12.322h3.282l-5.673 15.936C59.038 26.819 57.541 28 54.403 28c-.26 0-1.037-.029-1.267-.072z"/></svg>
